X:46
T:Indian Point
C:Rick Mohr
M:6/8
L:1/8
Z:Kevin Alewine at kalewine:HOME.COM irtrad-l 2001-5-15
R:jig
K:Em
B,EF G2A | BAG FED | CEF G2A | BAG BAG | FED A,2D |
FED AGF |1 EFG BAG | F2F GFE :|2 BAG FEF | E3 E2A |:
Bef gfe | cef gfe | dfg agf | gfe fed | Bef gfe |
ceg a2a |1 bag fef | e2f gfe :|2 bag fef | e3 ez2 |]
